assets/images/icons/add.svg

<svg width="25" height="25" viewBox="0 0 25 25" fill="none" xmlns="http://www.w3.org/2000/svg">
<path d="M12.5 6.54245C13.1276 6.54245 13.6364 7.05122 13.6364 7.67882V11.3636H17.3212C17.9488 11.3636 18.4575 11.8724 18.4575 12.5C18.4575 13.1276 17.9488 13.6364 17.3212 13.6364H13.6364V17.3212C13.6364 17.9488 13.1276 18.4575 12.5 18.4575C11.8724 18.4575 11.3636 17.9488 11.3636 17.3212V13.6364H7.67882C7.05122 13.6364 6.54245 13.1276 6.54245 12.5C6.54245 11.8724 7.05122 11.3636 7.67882 11.3636H11.3636V7.67882C11.3636 7.05122 11.8724 6.54245 12.5 6.54245Z" fill="white"/>
<path fill-rule="evenodd" clip-rule="evenodd" d="M3.66117 21.3388C-1.22039 16.4573 -1.22039 8.54272 3.66117 3.66117C8.54272 -1.22039 16.4573 -1.22039 21.3388 3.66117C26.2204 8.54272 26.2204 16.4573 21.3388 21.3388C16.4573 26.2204 8.54272 26.2204 3.66117 21.3388ZM5.26823 5.26823C1.27423 9.26222 1.27423 15.7378 5.26823 19.7318C9.26222 23.7258 15.7378 23.7258 19.7318 19.7318C23.7258 15.7378 23.7258 9.26222 19.7318 5.26823C15.7378 1.27423 9.26222 1.27423 5.26823 5.26823Z" fill="white"/>
</svg>

<svg width="25" height="25" fill="none" xmlns="http://www.w3.org/2000/svg"><path d="M12.5 6.542c.628 0 1.136.51 1.136 1.137v3.685h3.685a1.136 1.136 0 0 1 0 2.272h-3.685v3.685a1.136 1.136 0 0 1-2.272 0v-3.685H7.679a1.136 1.136 0 0 1 0-2.272h3.685V7.679c0-.628.508-1.137 1.136-1.137z" fill="#fff"/><path fill-rule="evenodd" clip-rule="evenodd" d="M3.661 21.339c-4.881-4.882-4.881-12.796 0-17.678 4.882-4.881 12.796-4.881 17.678 0 4.881 4.882 4.881 12.796 0 17.678-4.882 4.881-12.796 4.881-17.678 0zm1.607-16.07c-3.994 3.993-3.994 10.469 0 14.463 3.994 3.994 10.47 3.994 14.464 0 3.994-3.994 3.994-10.47 0-14.464-3.994-3.994-10.47-3.994-14.464 0z" fill="#fff"/></svg>
